X:857
T:Weeping Birches of Kilmorack, The 
C:Joe Buchanan's Scottish Tome - Page 504.0
I:504 0
C:J. Scott Skinner
Z:Jo Wegstein
R:Strathspey
L:1/8
M:4/4
K:Fdor
B,/A,/ | G,>>B, E>>G (=A/B/).c/.d/ e>c | (BG) (G>F) .E.C .C.B,/.A,/ |
G,>>B, E>>G (=E/F/).G/.=A/ Be | dB f=A (B2B)_d |
(cA) (ed/c/) BG EB | (AG) (FE) (B2B) B, |
C>>E D>>F E/e/d/c/ BA | G<E G>F (D2D) ||
B | (e/d/).c/.B/ (=A/B/).G/.E/ B<G G>E | B,>E G,>E (B,E G)B
(e/d/).c/.B/ (=A/B/).G/.E/ B<G G>E | F<B =A<f (B2B)=B |
(c/d/).e/.c/ (A/B/).c/.A/ (B/d/).e/.B/ (G/A/).B/.E/ | (AG) .F.E (B2B)=B |
(cA/F/) (BG/E/) (AF/D/) {FEF}EB,/G,/ | A,>C B,>D (E2E) |]

